public/assets/imgs/sucess.svg

<svg fill="none" height="32" viewBox="0 0 32 32" width="32" xmlns="http://www.w3.org/2000/svg"><circle cx="16" cy="16" fill="#4bbd97" r="16"/><path d="m14.9747 24.3487c-1.3452 1.3452-3.5261 1.3452-4.8713 0l-5.73857-5.7385c-.59179-.5918-.59179-1.5513 0-2.1431.59178-.5918 1.55126-.5918 2.14304 0l5.73853 5.7386c.1617.1616.4237.1616.5853 0l12.3788-12.37883c.5918-.59178 1.5513-.59178 2.1431 0 .5917.59183.5917 1.55123 0 2.14303z" fill="#fff" stroke="#fff" stroke-linecap="round"/></svg>

<svg width="32" height="32" viewBox="0 0 32 32" fill="none" xmlns="http://www.w3.org/2000/svg">
<circle cx="16" cy="16" r="16" fill="#4BBD97"/>
<path d="M14.9747 24.3487C13.6295 25.6939 11.4486 25.6939 10.1034 24.3487L4.36483 18.6102C3.77304 18.0184 3.77304 17.0589 4.36483 16.4671C4.95661 15.8753 5.91609 15.8753 6.50787 16.4671L12.2464 22.2057C12.4081 22.3673 12.6701 22.3673 12.8317 22.2057L25.2105 9.82687C25.8023 9.23509 26.7618 9.23509 27.3536 9.82687C27.9453 10.4187 27.9453 11.3781 27.3536 11.9699L14.9747 24.3487Z" fill="white" stroke="white" stroke-linecap="round"/>
</svg>
